/* XPM */
static char *ffca6b82866b45cbebeac78eaa0ff441QtkMRwN7fo7ZSxl8[] = {
/* columns rows colors chars-per-pixel */
"64 64 27 1 ",
"  c #0E0E0E",
". c gray11",
"X c #202020",
"o c #282828",
"O c #2C2C2C",
"+ c gray19",
"@ c #343434",
"# c #4C0000",
"$ c #5B0000",
"% c #640000",
"& c #730000",
"* c #7F0000",
"= c gray25",
"- c gray28",
"; c #4B4B4B",
": c #4C4C4C",
"> c gray33",
", c #880000",
"< c #980000",
"1 c #9B0000",
"2 c #A40000",
"3 c #A80000",
"4 c #B30000",
"5 c #BC0000",
"6 c #C80000",
"7 c #D40000",
"8 c #80502C",
/* pixels */
"1,,,11111=4,,,12,,1,1o645,,,11,1,,1111,1,=5,4,,1,,,,,o,,,,,,1,11",
",,,,,,1,,;6,,,1,11,,,+4,,,11,1,,1,1,1,,,1;4,1,1,21,11+,11,,1,1,,",
"1,,,,1*,,:5,1,1,1,,11o5121,111,1,,,,,,,1,:1111,,2,,,1o,111,,11,1",
"1111,,,,1=51111,,,,,1O61,112,,1,,11,1,1,,=6,11,,,1,,,O,1,1,,,,1,",
"12,,*,,1,-51,,1,11,,1O51,,11111,,21,,11,,-,,,,1,2,1,1O,,1,,1,12,",
",,1,1,2,1=51,,111,,11o511,1,11,,,,2,,1,11=,1,11,,1,2,o12,,,12111",
"&,,,,&,11=5&*1,1,*,*1o6*&&1,*&11&1,1,&,,,=2*&,111&2&1o,&&&,1*&11",
"XXX.o..X..XX.  .XXX..oXXX     oXXXX.o..X..XX.  .XXX..oXXX     oX",
"1%$11>,5,,666,,X4#,56654,,O,,6565,,,,>65,,55611X1%,56655,,O1546,",
",,111-1,1,,,,1,O5,1,,12,,,o,,,1,,,,,1-5,,11,,,1O,1,1122,,2o112,1",
",,12,:1,1,,1,11@6,,,,,,,,,O,1,,,,121,:6,1,,1121@5,,,,,,,1,O11111",
",,,,1=,1*,,,,,2o51,,1,1,,1+,11121,111=4,,121,,,o41,1112112+6,,1,",
",,,1,-1,21,1,,1o6,1,11,211O111,11,,,,-5,,,11111o5,1,1,,11,O6,1,1",
"1,,1,:1,2111,1,X4,,1,111,1X21,1,2,,,1:6,2,2,1,1X6,,,,,,1,1X4,12,",
",**1,=,11,,1,,,O5,,,,1,,1,o1,,,11*,11=5212,11,,O111111111,o*1,1,",
"*%&&%=&*8%&,,*,o4&&1&,,%1*O*&&,**%&%&=&&8&*,,*1o%&&1*,,$1*O*&&1&",
"X.....XX    .X...X..   .X.XXooo.X.....XX    .X...X..   .X.XXooo.",
"1$%,,,,1o51$%%,1111,,O6,%%66651-6,,5,112o6611,565561,O561165,,1-",
",1,,,,2,+611,,11,,,,1O4,,,1,,,1;6,,,1,,,+61,1,,11,,1,O61,,,,1,2;",
",,1,112,O6,,,1,11,1,1o6,,,,,1,,>5,11,,11O5,12,,1,,1,,o411,1111,>",
",1,11111X41,1,,111,1,+6,1,11,12=51,1,,,1X5,,,1,,11,,,+*12,121,1=",
"211,121,O6111,,,,,,2,O5,,,1,,1,-21,,,2,,O41,,1,,,,,,,O,,,,1,,1,-",
",1,1,,1,+611,11111111o511,,111,=,1,11,,2+61,11,1,,,1,o111,,,1,1=",
",%,&,,,,+6,&*&,,&&**1O31&&,&*&,=&%,&1,,1+5*&**,,&**&,O*1*&,*&*,=",
"..X.  .XXo.X   .X.XX..XXX  XX XX..X.  .XXo.X   .X.XX..XXX  XX XX",
"18&1o5&8%,,1%11o528%,,%2,,,o141465&1o53515,1$11o565,51#,21*o1,$,",
",1,,+411,11,,1,O5,,,,*1,1,,O,,,,,,11+411,1,,,1,O6,1,,,1,11,O1,,1",
",,11O5,,,1,121,O51,12,,1,1,o,,1,111,O5,,,,11,,1O6,,1,*11,11o,121",
",,2,O41,1111,,,o41,1,,,,1,1O,,11,,,1O6,1,1,,,1,o52,,,1,111,O,111",
",,11o4,,,,112,,o6,11,,1,11,o1,1111,1o5111,,1,,,o5,11,11,1,1o,,,,",
",121X4,,112,,,,O51,11111111O,,11,211X6,1,,1,,1,O6,,1211,111O1111",
"&,,,o6%**,*&1,*@6*,*,1,*,,,o&,,,&*1,o,%&,,,&11,@5*,&,,,*,1,o&,,1",
"OOOOOOOOOOOOOOOOOOOOOOOOOOOOOOOOOOOOOOOOOOOOOOOOOOOOOOOOOOOOOOOO",
"1,,,1,,,1;54554555,,,+465542,,1554511,,,1;1466556654,+4566461,,1",
",,1,1,1,,:4211,,1,1,1o5121,,1111,12,21,,,:6,,1,,1,,,,o611,12,,,2",
",,11,,,,1=6,,,,1,,,1,O51,1,2,,,,,1,,,111,=5,,,1,1,111O7,11,11,,,",
"12,1,1,1,-5,,1,12,,11O4,,,11,,,1,1*1111,,-6,1,1,,211,O61,11,1,1,",
"1,1,,,11,=51,,1,,1,11o511112,1,1,11,11,,,=51,,,,,1112o,11,,11,,1",
"*1,11&,,,=1&*1,,1&2&,o6*&&,,&&,2&1,11,11,=,&&,11,*,&,o1,&*2,&&21",
"XXX.o..X..XX.  .XXX..oXXX     oXXXX.o..X..XX.  .XXX..oXXX     oX",
",$%11>,81,5622,X4,56664,,*O55656,$$11>651,54111X5,6656,11,O,1,,1",
",*,,,-11,,,,,*1O5,,,,1111,o1,11,*,1,1-11,,,11*,O71,,,111,,o,,1,,",
"1112,:611,,,*,1@5,1,11,,,1O6,,11,121,:2,,111,2,@6,1,1,,,,1O1,1,1",
"11111=41,2111*2o61,,,11,,,+5,1,2,,21,=,,1,11,,1o51,,1,2,,1+11,2,",
",,,,,-5,111,,,,o6,1,,,111,O5,,,111,,,-1,11,1111o111,,,,1,,O,,11,",
"1,111:6,111,,,,X41,,,211,,X511,,11,1,:11111,,,,X,21,12,211X1111*",
"1&111=611,,,,,*O6,,1,,111,o,1111,&,1,=,1111,111O,,11,1,,11o,,,1,",
"&%%%%=%&8%*1,&,o&*&2&,,%1&O&&*1&&%%%%=&&8%&11&,o&&&1&,,%2&O&&&1&",
"X.....XX    .X...X..   .X.XXooo.X.....XX    .X...X..   .X.XXooo.",
"1$$,,,,1o,,%115555,,1O45,145,,1-6$$,6552o,*#%16565111O11#$1664,-",
",211,1,,+5*,,1,,,,,11O,1,21,,12;5,,1,1,,+5,,1,,1,,,,,O1,,1,1112;",
"1,111,,1O511,11111,11o,,,,11,,,>5,,,111,O5,,11,1,,,12o51,11,,2,>",
"11,211,,X4,,2111,,1,,+5111,,11,=4,,,,,11X4,11,21,111,+51,1,12,1=",
"21,1111,O2111,,,11,1,O5,,1,,1,1-511111,,O,1,,1,,,,,,1O511,,,,,1-",
",1111,1,+,,1,1,,11,21o5111112,,=,,1,,,,,+,1,,,,11,,1,o1111,2111=",
"*%,&,11,+1,&*&,,&*&&,O*1&*1&*&,=&&,*,,,,+1&&&&,1&&&*,O&,&&,&&*,=",
"..X.  .XXo.X   .X.XX..XXX  XX XX..X.  .XXo.X   .X.XX..XXX  XX XX",
"18&,o6251556%,,o465,45,6,1,o641658&1o525,555#11o165,55,11,,o2,$,",
",11,+6,1,,*,1,,O61,11,,,111O5,,,,111+51111,1,1,O,,1,,,,1,1,O,11,",
",111O5111,,,,,,O61,1,,1,111o511,1,,,O5,,,,1,,11O51,2,,1,,2,o,,1,",
"1121O411111122,o5,,12,,1,,,O5,,1,211O5,,,,221,1o6,,,11*,111O,1,,",
"111,o1,121,111,o5,,21,112,1o121,1,11o5,1211,112o5,,21,,,,,1o,,,,",
"1211X11112,,1,,O,,2,1,,11,,O11,,1221X,,,,1,11,1O111,,,,,,11O,,1,",
"*,,1o2&&,,1&1,*@1&,&1*1&11,o&,,1&,,2o,%&,,,&1,,@,*,&,,1&1,,o&,,1"
};
