/* XPM */
static char *_8e049bbb4ff4035a0f32f4ca2420c94Y5lMrK0XvIydr4GZ[] = {
/* columns rows colors chars-per-pixel */
"64 64 37 1 ",
"  c black",
". c #0E0E0E",
"X c gray11",
"o c #202020",
"O c #282828",
"+ c #2C2C2C",
"@ c gray19",
"# c #343434",
"$ c #4C0000",
"% c #5B0000",
"& c #640000",
"* c #730000",
"= c #7F0000",
"- c #543C1C",
"; c #404000",
": c #585400",
"> c #706C00",
", c gray25",
"< c gray28",
"1 c #4B4B4B",
"2 c #4C4C4C",
"3 c gray33",
"4 c #880000",
"5 c #980000",
"6 c #9B0000",
"7 c #A40000",
"8 c #B30000",
"9 c #BC0000",
"0 c #C80000",
"q c #80502C",
"w c #848400",
"e c #9C9C00",
"r c #DC8854",
"t c #FC9840",
"y c #E88C58",
"u c #F1AE43",
"i c #FCF440",
/* pixels */
"644466666,84446744646O0894446646446666464,94844644444O4444446466",
"444444644104446466444@8444664644646464446184646476466@4664464644",
"644446=44294646464466O9676466646444444464266664474446O4666446646",
"666644446,96666444446+0646674464466464644,04664446444+4646444464",
"6744=4464<96446466446+9644666664476446644<44446474646+4464464674",
"446464746,96446664466O9664646644447446466,46466446474O6744467666",
"*4444*466,9*=6464=4=6O0=**64=*66*6464*444,7=*4666*7*6O4***46=*66",
"oooXOXXoXXooX..XoooXXOooo.....OooooXOXXoXXooX..XoooXXOooo.....Oo",
"6&%663494400044o8$490098                4499066o6&49009944+69804",
"44666<646444464+9464467 eeweewweweeeeeee 664446+4646677447O66746",
"446742646446466#044444 e>>>>>>>>>>>>w>:>e 46676#9444444464+66666",
"44446,46=444447O96446 w>>::::::::::::::>>e 6444O8646667667@04464",
"44464<647646446O0464 e>>:>>>>>>>>>>:uut:>>e 666O9464644664+04646",
"644642647666464o844 w>::>>>>>::>>>>uuuuu:>>e 46o0444444646o84674",
"4==64,466446444+94 e>>:>>>>>:>>>>>utuuuuu:>>e 4+6666666664O=6464",
"=&**&,*=q&*44=4O8 e>>:>>>:>>>>>>>tututuutu:>>e O&**6=44%6=+=**6*",
"oXXXXXoo....XoXX e>>:>>>>:>>>>>>tuuuuuuuuuu:>>w XoXX...XoXooOOOX",
"6%&44446O96%&&4 e>>:>>>:>>>:>>>uuutuuuuttu>>:>>e 9064+906609446<",
"46444474@06644 e:::>>>>>>>>>>>tttuuuuuutu>>>u:>>e 464+0644446471",
"44646674+0444 e>>:w>>>>>>>>>:uuuuutuuuuu>>>utu;>>w 44O8664666643",
"46466666o864 ew>:>>:>>w>>>:>>>::>>>>uuy>:>uuu>>;>>e 4@=67467646,",
"76646764+06 w>>:>>>w>:>>:::>  XX XX >>>>>iuu>:>>:>>e +444464464<",
"46464464@0 e>>:>>>>>w>>>:   :::;::::  X>tuu>>>>>>:>>w 666444646,",
"4&4*4444@ w>>:>>>>>>>>>: ;::::::::>>>>e >r>>>>>>>>::>e 6=*4=*=4,",
"XXoX..Xo e>>:>>>>:>:>>: :;:::::>>>>>>>>e >:>>>>::>>:>>: o..oo.oo",
"6q*6O9*q e>:>>>:>:>>>:X::;:;>>>>>>>>>>>>e e>>>>>>>>>e:: *6=O64%4",
"4644@866 e>:>>>>>>:>>: ;::>:>>>>>>>:>>>:> e>>>>>>>>>w>: *&4+6446",
"4466+944 w>:>>:>>>>>>> ::>>>>>>>>>>>>:>>> e>w>>>>>>>e>: %*6O4676",
"4474+864 e>:>>w>>>>>> :::>>>>>::>>>>>>:>>e w>>>>w>>>e>: &*4+4666",
"4466O844 e>:>>>w>>>uw ::>>eee>>>>>>eee>>>> e>>>>>>>>>:; *&6O4444",
"4676o844 e>:>>>>>>ut> ::>e X >:>:ew   >>>> e>>>>>:>>e>: *&6+6666",
"*444O0&= e>:>>>>>tut> :>e  X XX>e     X>>e e>>>>::>:e>: &*4O*446",
"++++++++ e::>>>>uutuu>.:eX  X  >e .    :w e>>>>>>>>>e>; XX++++++",
"64446444 e>:>:>tutuuuu> >    X:>>>  X  ; e>>>>>>>>>>w>; 64806446",
"44646464 e>:>>uutuuuut>X>X    :>>>     > e>>>>>>>>>>e>: *&674447",
"44664444 e>::tuuuuuuttw >>>>>>e  >>::::wXe>:>>>>>>>>e>: &&466444",
"67464646 e>:ttuuuuuuu> ::>>>>>eX >>>>>>>w e:>:>:>>>>w>: &*646464",
"64644466 e>:uuuuuuuuu> ::>>>>>X   ::>>>>e e>>>>>>>>:e:: *&466446",
"=6466*44 e>:ututtuuuu>> ::>>>>>>>>>>:>>w w>>>>>>>>>>e>: $%74**76",
"oooXOXXo w:>wtuuyutt>:>>  w:>>e>>e>>>e  e>>>>:>>>:>e>>: ......Oo",
"4%&6634q6 :>>euttuu>>>yu>e ww> >> >>e ee>>>>>>>>>>w>w: *&&+46446",
"4=444<6644 :>>euuuw>>utt>:e we ee we e>>>>>>>>>>>e>>; &&&&O44644",
"66674206644 :>>ey>>>uut>>>>e  e Xe  e>>>>>>>>:>:e>w: &&%&6+64646",
"66666,864766 :>>w>>tuu>>>>>>ew>ee>ee>>>>>>:>>>>e:>; *&*&46@66474",
"44444<9466644 :>>etuu:>>::>:>>>>>>:>>:>>>>>>>:e>>: &&&&644+44664",
"64666204666444 ::>eu>>>:>>:>>>>:>>>>>>>>>>>>:e>>: *&**4766o6666=",
"6*666,06644444= :>>e>>>>>>:>>>>>>:>>>>>>>:>:e>>: &**&64466O44464",
"*&&&&,&*q&=64*4O :>>w>>>>>>>>>w>>>>>>>>>>>>w>:: $$$**44&7*+***6*",
"oXXXXXoo....XoXXX :>>e>>>:>>:>w>>>>>>>>>>ww>>: ....X...XoXooOOOX",
"6%%44446O44&669999 :>>e>>>>>>>>>>>>:>>>>>w>:: 4444666+66$%60084<",
"47664644@9=44644444 :w:e>>>>:>>>>>>>>>:>e>>: &&&&4444+6446466671",
"64666446+96646666646 :>>e>>:>>>>w>>>>>>e>>: **&&44467O9646644743",
"66476644o844766644644 :>>eeeeweeeweweew>>; &*%*646664@964646746,",
"76466664+766644466464+ ;:>>>>>>>>>>>>>>:; *%&*4444446+966444446<",
"46666464@446464466476O9 :::::::::::::;:: &*&&44664464O666647666,",
"=&4*4664@64*=*44*=**4+=6                o*$$**46***=4+*4**4**=4,",
"XXoX..XooOXo...XoXooXXooo...X............X.o...XoXooXXooo..oo.oo",
"6-*4O0796990&44O8094894046&X44*44-$*X4*4&499$66O60949946644O74%4",
"4664@04644=4644+06466444666+94444666@9666646464+44644446464+4664",
"4666+9666444444+06464464666O96646444+9444464466+96474464474O4464",
"6676+8666666774O94467446444+94464766+9444477646O044466=4666+4644",
"6664O6467646664O94476466746O67646466O9467664667O94476444446O4444",
"6766o6666744644+44746446644+66446776o4444646646+66644444466+4464",
"=446O7**446*64=#6*4*6=6*664O*446*447O4&*444*644#4=4*446*644O*446"
};
