/* XPM */
static char *_26de9a41b8e4ddac5dec73213a75844nIN1XeNKgLet8SJA[] = {
/* columns rows colors chars-per-pixel */
"64 64 45 1 ",
"  c #0E0E0E",
". c gray11",
"X c #202020",
"o c #282828",
"O c #2C2C2C",
"+ c gray19",
"@ c #343434",
"# c gray23",
"$ c #4C0000",
"% c #5B0000",
"& c #640000",
"* c #730000",
"= c #7C0000",
"- c #7F0000",
"; c #403018",
": c #483818",
"> c #543C1C",
", c #5C4020",
"< c #6C4824",
"1 c #744C28",
"2 c #434343",
"3 c gray28",
"4 c #4B4B4B",
"5 c #4C4C4C",
"6 c gray31",
"7 c gray33",
"8 c gray36",
"9 c gray39",
"0 c #646464",
"q c gray42",
"w c gray44",
"e c #880000",
"r c #980000",
"t c #9B0000",
"y c #A40000",
"u c #A80000",
"i c #B30000",
"p c #BC0000",
"a c #CB0000",
"s c #D40000",
"d c #80502C",
"f c #885830",
"g c #905C34",
"h c #9C6038",
"j c #A0643C",
/* pixels */
"teeettttt2ieeetyeetetoaipeeetteteettttete2peieeteeeeeoeeeeeetett",
"eeeeeetee4aeeetetteee+ieeetteteeteteteeet4ieteteytett+etteetetee",
"teeeet-ee6peteteteettoptytettteteeeeeeete6tttteeyeeetoettteettet",
"tttteeeet2ptttteeeeetOatettyeeteettetetee2aetteeeteeeOeteteeeete",
"tyee-eete3pteetetteetOpteettttteeyteettee3eeeeteyetetOeeteetetye",
"eeteteyet2pteettteettopttetetteeeeyeetett2etetteeteyeotyeeetyttt",
"*eeee*ett2p*-tete-e-toa-**te-*tt*tete*eee2y-*ettt*y*toe***et-*tt",
"XXX.o..X..XX.  .XXX..oXXX     oXXXX.o..X..XX.  .XXX..oXXX     oX",
"t&%ttX6w4400064Xi$epaapieeO6600q034467apeeppattX1;<ghhgg<<Otpiae",
"eetttX767646466Opeteetyeeeo46674646673peetteeetO<1<11dd<<dottyet",
"eetyeX747667677@aeeeeeeeeeO46664667746aeteettyt@g<1<1<<<11Ottttt",
"eeeetX463666647opteeteteet+67777667772ieetyteeeof1<d11d1dd+aeete",
"eeeteX767747667oaetetteyttO67767746663peeetttttog1d<11<1d<Oaetet",
"teeteX767767476XieetetttetX77674763476aeyeyetetXh1<<11<1<1Xietye",
"e--teX676666666Opeeeeteeteo76667734772pytyetteeOd1d11d111<o-tete",
"-&**&X#28@#4424oi**t*ee&t-O3#2432####2**d*-ee-to>,,d,<d;d,O-**t*",
"X.....XX    .X...X..   .X.XXooo.X.....XX    .X...X..   .X.XXooo.",
"t%&eeeetopt%&&etttteeOae&&aaapt3aeepettyo006449q99076Opattapeet3",
"eteeeeye+atteetteeeetOieeeteeet4aeeeteee+076766764664Oateeeetey4",
"eetettyeOaeeetettetetoaeeeeetee7petteettO967766744766oittetttte7",
"etetttttXiteteetttete+aetettety2pteteeetX964666676666+-tyetytet2",
"yttetyteOattteeeeeeyeOpeeeteete3yteeeyeeO976666666666Oeeeeteete3",
"eteteete+attettttttttoptteettte2etetteey+q76676764474ottteeetet2",
"e&e*eeee+ae*-*ee**--tOut**e*-*e2*&e*teet+032236622224O-t-*e-*-e2",
"..X.  .XXo.X   .X.XX..XXX  XX XX..X.  .XXo.X   .X.XX..XXX  XX XX",
"td*top*d&eet&tto978@66@7664otitiap*togdj1g<1;11opapept$eyt-ote%e",
"etee+ittetteeteO96446376766Oeeeeeett+fd1111<11<OaeteeetetteOteet",
"eettOpeeetetyteO97667647676oeetettteOf1<1<111<dOaeete-ttettoetyt",
"eeyeOitetttteeeo87664666767OeetteeetOh11<1<111<opyeeetettteOettt",
"eettoieeeettyeeoq4776676776otettttetof1d111111<opettettetetoeeee",
"etytXieettyeeeeO97667777677OeetteyttXh11<1d<<11OaeetyttetttOtttt",
"*eeeoa&--e-*te-@02426662646o*eee*-teo<>,<1<>d1<@p-e*eee-eteo*eet",
"OOOOOOOOOOOOOOOOOOOOOOOOOOOOOOOOOOOOOOOOOOOOOOOOOOOOOOOOOOOOOOOO",
"teeeteeet4pippipppeee+iappiyeetppiptteeet4tiaappaapie+ipaaiateet",
"eetetetee6iytteetetetoptyteettttetyeyteee6aeeteeteeeeoattetyeeey",
"eetteeeet2aeeeeteeeteOpteteyeeeeeteeettte2peeetetetttOsettetteee",
"tyetetete3peetetyeettOieeetteeetet-ttttee3aeteteeytteOatettetete",
"teteeette2pteeteetettopttttyetetettetteee2pteeeeetttyoetteetteet",
"-tett*eee2t*-teet*y*eoa-**ee**ey*tettette2e**ette-e*eote*-ye**yt",
"XXX.o..X..XX.  .XXX..oXXX     oXXXX.o..X..XX.  .XXX..oXXX     oX",
"e%&tt7edtepayyeXf,ghghf1<,Oggggh<;;1d7aptepitttXpeaapaetteOeteet",
"e-eee3tteeeee-tOg1<<11d111od<dd<,<d1d3tteeett-eOsteeettteeoeetee",
"tttye6atteee-et@g<d<11<<<1Og111d<1dd16yeettteye@aeteteeeetOtetet",
"ttttt2iteyttt-yog1<1<1d11<+g<11d1<dd12eetetteetopteeteyeet+tteye",
"eeeee3pettteeeeog<d<<11d11Og1<1d1d1<<3tettettttottteeeeteeOeette",
"tettt6aettteeeeXf1<<<d1d<1Xg1d1111<1<6ttttteeeeXeytetyeyttXtttt-",
"t*ttt2atteeeee-Oh1111<11d<o11111<><112ettttetttOeetteteettoeeete",
"*&&&&2&*d&-te*eo,,>d,1d>1>O,>,1,>:>>:2**d&*tt*eo***t*ee&y*O***t*",
"X.....XX    .X...X..   .X.XXooo.X.....XX    .X...X..   .X.XXooo.",
"t%%eeeetoee&ttppppeetOipetipeet3a%%eappyoe-$&tapaptttOtt$%taaie3",
"eyttetee+p-eeteeeeettOeteyteety4peetetee+peeteeteeeeeOteetettty4",
"tettteetOpttetttttettoeeeetteee7peeettteOpeetteteeetyoptetteeye7",
"tteytteeXieeyttteetee+pttteette2ieeeeettXietteytettte+ptetetyet2",
"ytetttteOyttteeetteteOpeeteetet3pttttteeOeteeteeeeeetOptteeeeet3",
"ettttete+eeteteetteytoptttttyee2eeteeeee+eteeeetteeteotttteyttt2",
"-&e*ette+te*-*ee*-**eO-t*-t*-*e2**e-eeee+t****et***-eO*e**e**-e2",
"..X.  .XXo.X   .X.XX..XXX  XX XX..X.  .XXo.X   .X.XX..XXX  XX XX",
"t1*eoayptppa&eeoiapeipeaeteogf<ggf>dogdj<ggg;11otapeppetteeoye%e",
"ette+aetee-eteeOatetteeetttOg<1<<111+g111d<1111OeeteeeeteteOette",
"etttOpttteeeeeeOateteetetttog1111<<1Og1<1<11<11Opteyeeteeyeoeete",
"ttytOittttttyyeopeetyeeteeeOg<<d1dd1Of11<<ddd1doaeeett-etttOetee",
"ttteotetytettteopeeytettyeto1dd<d<1dog1dd11<11dopeeyteeeeetoeeee",
"tyttXttttyeeteeOeeyeteetteeO1d<<ddddX<<<<d11d<dOttteeeeeettOeete",
"-eetoy**eet*te-@t*e*t-t*tteo,1<1,<<do1:,<1<>d<,@e-e*eet*teeo*eet"
};
