/* XPM */
static char *_58902e393a44c76be4d7b81d9b77582B6tLIQXegRw6h46S[] = {
/* columns rows colors chars-per-pixel */
"64 64 27 1 ",
"  c #232323",
". c #282828",
"X c #2F2F2F",
"o c gray19",
"O c #343434",
"+ c gray22",
"@ c gray23",
"# c gray25",
"$ c gray28",
"% c #484848",
"& c #4C4C4C",
"* c gray33",
"= c #5B5B5B",
"- c gray36",
"; c #646464",
": c gray42",
"> c gray44",
", c #777777",
"< c gray50",
"1 c #838383",
"2 c gray55",
"3 c #939393",
"4 c #989898",
"5 c #9F9F9F",
"6 c gray67",
"7 c #B4B4B4",
"8 c #C0C0C0",
/* pixels */
"#88888888888888888.#88888888888888888888888X#8888888888888888888",
"%87766777777867774.#87777677777777777777774.&8877767867777777677",
"*87767678677777774.+87678778777787777777774.O8777867766677776774",
"&88777778777777674 %87767777777768777777764o*8766777776877788764",
"#86767778777767774X#87776788766777776787774 *8777777777777767774",
"%87678777777767774.&87777777877777767767774.&8777777777777777784",
"#87777677677776764.#87877777767677767767764.&8777676787776776774",
"$86778776777777774o#88767777777766677777774X#8787777777876867774",
"*87766777777767774 $86777777777777777777774o#8777777777777776674",
"%87876767777777774o$87867777866777777777774X&8767767777777777774",
"#87777777686777784.%87776677777777776678774.*8777776677777767774",
"$87787676767877774X#87777677778776777777874.*8677777778878777764",
"*83843317766438784O+87713777376787777387674X%8777778434646786774",
"$37444444444444444o#47433337444444444433174.*7444333444444444444",
"###X+oO++O+OO+O;>+%#*%..X.&>;:OOX&#&OoOOXO#$&+X%&XXX&*&::#& .X.+",
"#%&&#**##*####&$%#*##&$&&+oXOX##%&#&#*%#&$&*#&&&+%%XoXXXXX..*=&%",
"##&=#$%%&&++&&$%#*%&$+%*%%$$&&%#*O%$#*%#5554+55#%*&-++&&&*%&#*-&",
"8888888888X*8888888888888888888 #88888888888888888888X&888888888",
"6766767774o#8776677777777777677O+87778766777777777777.+867777776",
"7686777774.$8777777677767776764X%87777677777777777774.&877786776",
"7767777774o*8777767777877787774o#87877787777777776664X+877778777",
"7776677864X&8777876777777677674O&87677767777766777774X+877677777",
"7767777764.*8777777877777777764X$87777676877877777774.%877777776",
"7776777774X#8776777778877676774.$87776677777877767774o#877777777",
"6877778774.%8767677776778776774.*86777667677777868874X#877777777",
"7677677774o$8777676777678777774.#87777767777767777774X+877777777",
"7767777774X&8777767776766677874 #86876777776787767774X*877767776",
"7777766774X&8767777777777677774 +86777777778877777774 &877776776",
"7736667674X#8786777877777778674X%87677776676767788674 &877677777",
"7643663734O#8777777777777777874X*87777788867767777674.$866777776",
"7141336364O&8833377677447743174X+87773333776776777774X&877774377",
"33111141<1 #6333344<74444433774.+344<4444444444444337X#443333673",
"#%oX o.X.X*&%.. .X*#:::oo.OX##X*+# X.oX.::>:&XooOX.o**#% o..O.oX",
"*%&$&###%+*##*#%#.O.XXoo*$$&+#$+$##&$$*$Xo.X.o##%&%+#*%&&*$***%$",
"##+##**:>:;&*+*+&%*#+$**&=*%#*:*::::>%##&###++$+#&$&:::::;#%#O&%",
"88888888888888888.&878888888888888888778888X*788888888888888888$",
"77777767777776774.&877676776776777677877774X$767777776777777777+",
"87777777777777864o&877776777776767776677674X#776777877677777874%",
"76777776777777764o&877777777776777777777674.#676786777777787774*",
"87766767777677784X*867667777767767677777884.*677777677787777774*",
"77777777777677774X&867777766787766777768774X$777687776777777774#",
"76777677677776674 #877767766677767877777774o=677877767777777774#",
"77777777776767774X*877777787778777766787774o*878677767767777774%",
"78887767677777874X%867677777667767877677774X#768777777867767774$",
"77666767776776774 $877787777767876677667674O%677777777777867674+",
"77677766667677774o&877777777767767667667774.%777777777677776784#",
"77777773376776274X%877777777436877876767774.$876677877777777334%",
"64444644444444474o$734733333374733336344744X:318733374743333864#",
".;:%#Xoo:>>:XoX&.&&*#%.X&%>>:OXX##X XX.XoXo&%#OX.#:,,::>::>.O.o+",
"##+#$&*+Oo.X##&%*%+*&+#%XXX.XX$+*%#$+&#%$#O##*&*$$#XXX*%+*&X%%&%",
"+*#&#&%#+%O%#=+$&::>&$+&$**#*&&$$&*%+O&>>>>;:::>;:+**#.OX..X*&*=",
"888888877.+88888888888888888886.+8888888888888888888887.%8888888",
"777777777.#87777788777777776774o+87777777777777778,7774X%8677777",
"767777774o*87777777776677777774X+8776777767667677777774X%8767777",
"767778774X%87777677777777677774o%8777768777777777777764o%8777867",
"777777784X$87776787667877777774X*8777778787777777778774.%8777877",
"777777774o&86677777777777776774X#8777777677777777767774 %8777777",
"787777774X#87777777767787777774.$8776677677776777776774X%8677777",
"777767874.+87777877677676877674.&8777776777767877778764o%8677777",
"777777774.&87777787766778777774.#8867777777767777777774.%8777776",
"878777784.&87777766787776677764X*8778777777777777777774X%8767777",
"777868774 %87777776777777777774X%8677867777677778778674X%8777777",
"777767774O+87777777777777777874O#8777777777787777673774X%8877767",
"433444444.&84113443744444444333O$7133433473444433444444.%4343444"
};
